src/_includes/assets/svg/no-ai.svg

<svg xmlns="http://www.w3.org/2000/svg" viewBox="0 0 16 16">
    <!-- No-A.I. icon by chriskirknielsen, free to use for your own website -->
    <title>No A.I.</title>
    <g fill="currentColor">
        <path d="M12.37,13.35l1-1L3.61,2.61l-1,1,9.76,9.74ZM8,15.5c4.25,0,7.5-3.25,7.5-7.5S12.26.5,8,.5C3.93.43.57,3.67.5,7.74c0,.09,0,.17,0,.26,0,4.24,3.26,7.5,7.5,7.5M8,14.18c-3.35.06-6.11-2.62-6.17-5.97,0-.07,0-.14,0-.21,0-3.5,2.67-6.18,6.17-6.18s6.17,2.68,6.17,6.18-2.67,6.18-6.17,6.18"/>
        <path d="M10.29,8.48V3.78h2.07v6.77l-2.07-2.07ZM7,8.78h-1.14l.16-.99-1.5-1.5-1.3,5.43h2.18l.21-1.39h1.65l.22,1.4h2.2l-.09-.38-2.59-2.57ZM8.43,6.64l-.7-2.87h-2.16l2.86,2.87Z"/>
    </g>
</svg>

<svg xmlns="http://www.w3.org/2000/svg" viewBox="0 0 16 16">
    <!-- No-A.I. icon by chriskirknielsen, free to use for your own website -->
    <title>No A.I.</title>
    <path fill="currentColor" d="M10.29 8.48v-4.7h2.07v6.77zM7 8.78H5.86l.16-.99-1.5-1.5-1.3 5.43H5.4l.21-1.39h1.65l.22 1.4h2.2l-.09-.38zm1.43-2.14-.7-2.87H5.57zm3.94 6.71 1-1-9.76-9.74-1 1zM8 15.5c4.25 0 7.5-3.25 7.5-7.5S12.26.5 8 .5A7.37 7.37 0 0 0 .5 8c0 4.24 3.26 7.5 7.5 7.5m0-1.32A6.07 6.07 0 0 1 1.83 8C1.83 4.5 4.5 1.82 8 1.82S14.17 4.5 14.17 8 11.5 14.18 8 14.18" />
</svg>
